raw-svg/arrow-circle-right.svg

<svg viewBox="0 0 24 24" xmlns="http://www.w3.org/2000/svg"><path d="m12 21a9 9 0 1 1 9-9 9 9 0 0 1 -9 9zm0-16.5a7.5 7.5 0 1 0 7.5 7.5 7.5 7.5 0 0 0 -7.5-7.5z"/><path d="m12 16.75a.74.74 0 0 1 -.53-.22.75.75 0 0 1 0-1.06l3.47-3.47-3.47-3.47a.75.75 0 0 1 1.06-1.06l4 4a.75.75 0 0 1 0 1.06l-4 4a.74.74 0 0 1 -.53.22z"/><path d="m16 12.75h-8a.75.75 0 0 1 0-1.5h8a.75.75 0 0 1 0 1.5z"/></svg>

<svg xmlns="http://www.w3.org/2000/svg" viewBox="0 0 24 24"><g id="arrow-circle-right"><path d="M12,21a9,9,0,1,1,9-9A9,9,0,0,1,12,21ZM12,4.5A7.5,7.5,0,1,0,19.5,12,7.5,7.5,0,0,0,12,4.5Z"/><path d="M12,16.75a.74.74,0,0,1-.53-.22.75.75,0,0,1,0-1.06L14.94,12,11.47,8.53a.75.75,0,0,1,1.06-1.06l4,4a.75.75,0,0,1,0,1.06l-4,4A.74.74,0,0,1,12,16.75Z"/><path d="M16,12.75H8a.75.75,0,0,1,0-1.5h8a.75.75,0,0,1,0,1.5Z"/></g></svg>
